resources/images/arrow-viewmore.svg

<svg xmlns:xlink="http://www.w3.org/1999/xlink" viewBox="0 0 17 14" fill="none" xmlns="http://www.w3.org/2000/svg"
    width="17" height="14">
    <path
        d="M14.0225 6.00241C13.6262 5.60923 13.2243 5.22188 12.8336 4.82288C11.7552 3.72199 10.6796 2.61818 9.60971 1.50855C9.31816 1.20566 9.26721 0.77753 9.44837 0.448427C9.63518 0.113498 10.0116 -0.0787213 10.3711 0.0290382C10.5466 0.0814617 10.7278 0.192134 10.8608 0.326105C12.8195 2.32694 14.7697 4.33359 16.7199 6.34608C17.0879 6.72469 17.0936 7.26058 16.7228 7.64501C14.7584 9.67497 12.7884 11.6991 10.8155 13.7203C10.4475 14.0989 9.92106 14.0873 9.58706 13.7291C9.25589 13.3737 9.26155 12.8408 9.62952 12.4622C10.9825 11.0642 12.3383 9.67206 13.6998 8.28284C13.8017 8.1809 13.9404 8.11974 14.0649 8.0411C14.0338 7.98577 14.0055 7.93334 13.9743 7.87801C13.8526 7.87801 13.7281 7.87801 13.6064 7.87801C9.47101 7.8751 5.33848 7.8751 1.20311 7.87218C1.0814 7.87218 0.962519 7.87801 0.840808 7.86927C0.3483 7.84015 -0.00834304 7.45862 0.00014847 6.98098C0.00863998 6.515 0.351131 6.14512 0.832316 6.12764C1.3503 6.10726 1.86828 6.11891 2.38626 6.11891C6.16215 6.11599 9.93521 6.11599 13.7083 6.11599C13.7904 6.11599 13.8724 6.10726 13.9574 6.10143C13.9772 6.0694 13.9998 6.03445 14.0225 6.00241Z"
        fill="currentColor">
    </path>
</svg>

<svg width="17" height="14" viewBox="0 0 17 14">
    <path
        d="M14.023 6.002c-.397-.393-.799-.78-1.19-1.18A584.386 584.386 0 0 1 9.61 1.51a.901.901 0 0 1-.162-1.06c.187-.336.564-.528.923-.42.176.052.357.163.49.297 1.958 2 3.909 4.008 5.859 6.02.368.379.374.915.003 1.299-1.965 2.03-3.935 4.054-5.907 6.075-.369.379-.895.367-1.229.01-.331-.356-.325-.89.043-1.268a927.66 927.66 0 0 1 4.07-4.18c.102-.101.24-.162.365-.24l-.09-.164h-.369L1.203 7.872c-.122 0-.24.006-.362-.003-.493-.029-.85-.41-.84-.888a.849.849 0 0 1 .831-.853c.518-.02 1.036-.01 1.554-.01 3.776-.002 7.55-.002 11.322-.002.082 0 .164-.009.25-.015.02-.032.042-.067.065-.099Z" />
</svg>
